papirus/16x16/mimetypes/x-office-presentation.svg

<?xml version="1.0" encoding="UTF-8" standalone="no"?>
<svg
   xmlns:dc="http://purl.org/dc/elements/1.1/"
   xmlns:cc="http://creativecommons.org/ns#"
   xmlns:rdf="http://www.w3.org/1999/02/22-rdf-syntax-ns#"
   xmlns:svg="http://www.w3.org/2000/svg"
   xmlns="http://www.w3.org/2000/svg"
   xmlns:sodipodi="http://sodipodi.sourceforge.net/DTD/sodipodi-0.dtd"
   xmlns:inkscape="http://www.inkscape.org/namespaces/inkscape"
   id="svg2"
   height="16px"
   width="16px"
   version="1.1"
   viewBox="0 0 16 16"
   inkscape:version="0.91 r"
   sodipodi:docname="x-office-presentation.svg">
  <defs
     id="defs11" />
  <sodipodi:namedview
     pagecolor="#ffffff"
     bordercolor="#666666"
     borderopacity="1"
     objecttolerance="10"
     gridtolerance="10"
     guidetolerance="10"
     inkscape:pageopacity="0"
     inkscape:pageshadow="2"
     inkscape:window-width="1535"
     inkscape:window-height="876"
     id="namedview9"
     showgrid="false"
     inkscape:zoom="23.96"
     inkscape:cx="10.529703"
     inkscape:cy="8"
     inkscape:window-x="65"
     inkscape:window-y="24"
     inkscape:window-maximized="1"
     inkscape:current-layer="svg2" />
  <metadata
     id="metadata17">
    <rdf:RDF>
      <cc:Work
         rdf:about="">
        <dc:format>image/svg+xml</dc:format>
        <dc:type
           rdf:resource="http://purl.org/dc/dcmitype/StillImage" />
      </cc:Work>
    </rdf:RDF>
  </metadata>
  <path
     style="fill:#ff5721"
     inkscape:connector-curvature="0"
     d="M 2.75,1 C 2.33276,1 2,1.33276 2,1.75 l 0,13.5 C 2,15.667192 2.332808,16 2.75,16 l 10.5,0 C 13.6676,16 14,15.6676 14,15.25 L 14,5.5 9.875,5.125 9.5,1 Z"
     id="path5" />
  <path
     style="fill:#ff855e"
     inkscape:connector-curvature="0"
     d="m 9.5,1 0,3.75 c 0,0.41256 0.33744,0.75 0.75,0.75 l 3.75,0 z"
     id="path7" />
  <path
     style="fill:#ffffff;fill-opacity:0.2"
     inkscape:connector-curvature="0"
     d="M 2.75,1 C 2.33276,1 2,1.33276 2,1.75 l 0,0.6 C 2,1.93276 2.33276,1.6 2.75,1.6 l 6.75,0 0,-0.6 z"
     id="path9" />
  <path
     style="fill:#ffffff"
     d="M 5.0000001,7.0000004 C 3.89376,7.0000004 3,7.8937604 3,9 3,10.10624 3.89376,11 5.0000001,11 6.10624,11 7,10.10624 7,9 L 5.0000001,9 Z"
     id="path4149"
     inkscape:connector-curvature="0" />
  <path
     style="fill:#ffffff"
     d="m 8,8 0,1 4,0 0,-1 z"
     id="path4147" />
  <path
     style="fill:#ffffff"
     d="m 8,10 0,1 4,0 0,-1 z"
     id="path4145" />
  <path
     style="fill:#ffffff"
     d="m 4,12 0,1 6,0 0,-1 z"
     id="path11" />
</svg>

<?xml version="1.0" encoding="UTF-8" standalone="no"?>
<svg id="svg2" xmlns:rdf="http://www.w3.org/1999/02/22-rdf-syntax-ns#" xmlns="http://www.w3.org/2000/svg" height="16px" width="16px" version="1.1" xmlns:cc="http://creativecommons.org/ns#" viewBox="0 0 16 16" xmlns:dc="http://purl.org/dc/elements/1.1/">
 <metadata id="metadata17">
  <rdf:RDF>
   <cc:Work rdf:about="">
    <dc:format>image/svg+xml</dc:format>
    <dc:type rdf:resource="http://purl.org/dc/dcmitype/StillImage"/>
   </cc:Work>
  </rdf:RDF>
 </metadata>
 <path id="path5" fill="#ff5721" d="m2.75 1c-0.4172 0-0.75 0.3328-0.75 0.75v13.5c0 0.417 0.3328 0.75 0.75 0.75h10.5c0.418 0 0.75-0.332 0.75-0.75v-9.75l-4.125-0.375-0.375-4.125z"/>
 <path id="path7" fill="#ff855e" d="m9.5 1v3.75c0 0.41256 0.33744 0.75 0.75 0.75h3.75z"/>
 <path id="path9" fill-opacity=".2" fill="#fff" d="m2.75 1c-0.4172 0-0.75 0.3328-0.75 0.75v0.6c0-0.4172 0.3328-0.75 0.75-0.75h6.75v-0.6z"/>
 <path id="path4149" fill="#fff" d="m5 7c-1.1062 0-2 0.8938-2 2 0 1.106 0.8938 2 2 2s2-0.894 2-2h-2z"/>
 <path id="path4147" fill="#fff" d="m8 8v1h4v-1z"/>
 <path id="path4145" fill="#fff" d="m8 10v1h4v-1z"/>
 <path id="path11" fill="#fff" d="m4 12v1h6v-1z"/>
</svg>
